svg/other/firework_fill.svg

<?xml version="1.0" encoding="UTF-8"?>
<svg width="24px" height="24px" viewBox="0 0 24 24" version="1.1" xmlns="http://www.w3.org/2000/svg" xmlns:xlink="http://www.w3.org/1999/xlink">
    <title>firework_fill</title>
    <g id="Icon" stroke="none" stroke-width="1" fill="none" fill-rule="evenodd">
        <g id="Business" transform="translate(-337.000000, -528.000000)" fill-rule="nonzero">
            <g id="firework_fill" transform="translate(337.000000, 528.000000)">
                <path d="M24,0 L24,24 L0,24 L0,0 L24,0 Z M12.5935,23.2578 L12.5819,23.2595 L12.5109,23.295 L12.4919,23.2987 L12.4767,23.295 L12.4057,23.2595 C12.3958,23.2564 12.387,23.259 12.3821,23.2649 L12.378,23.2758 L12.3609,23.7031 L12.3659,23.7235 L12.3769,23.7357 L12.4805,23.8097 L12.4953,23.8136 L12.5071,23.8097 L12.6107,23.7357 L12.6233,23.7197 L12.6267,23.7031 L12.6096,23.2758 C12.6076,23.2657 12.601,23.2593 12.5935,23.2578 Z M12.8584,23.1453 L12.8445,23.1473 L12.6598,23.2397 L12.6499,23.2499 L12.6472,23.2611 L12.6651,23.6906 L12.6699,23.7034 L12.6784,23.7105 L12.8793,23.8032 C12.8914,23.8069 12.9022,23.803 12.9078,23.7952 L12.9118,23.7812 L12.8777,23.1665 C12.8753,23.1546 12.8674,23.147 12.8584,23.1453 Z M12.143,23.1473 C12.1332,23.1424 12.1222,23.1453 12.1156,23.1526 L12.1099,23.1665 L12.0758,23.7812 C12.0751,23.7927 12.0828,23.8019 12.0926,23.8046 L12.1083,23.8032 L12.3092,23.7105 L12.3186,23.7024 L12.3225,23.6906 L12.3404,23.2611 L12.3372,23.2485 L12.3278,23.2397 L12.143,23.1473 Z" id="MingCute"></path>
                <path d="M13.7422,16.2015 C13.5152091,15.5957455 14.2630651,15.1304913 14.7061183,15.5444954 L14.7672,15.6097 L17.6164,19.0706 C18.1454,19.7133 17.9708,20.6772 17.2499,21.0934 C16.56905,21.4864778 15.7087346,21.2133392 15.3691741,20.52511 L15.3148,20.3994 L13.7422,16.2015 Z M14.3838986,12.7163662 L14.4694,12.7423 L18.6672,14.3149 C19.4468,14.607 19.7775,15.5291 19.3613,16.25 C18.9695824,16.9284941 18.0926163,17.1230685 17.454976,16.7025812 L17.3384,16.6165 L13.8776,13.7674 C13.3780864,13.3561818 13.7931921,12.5793163 14.3838986,12.7163662 Z M22.4999,12.0002 C22.4999,12.7887895 21.8291033,13.3985956 21.0602517,13.3442843 L20.9313,13.329 L16.5096,12.592 C15.8782389,12.4867889 15.8431633,11.623934 16.4043731,11.4344559 L16.5096,11.4083 L20.9313,10.6714 C21.7525,10.5345 22.4999,11.1677 22.4999,12.0002 Z M19.3612,7.75 C19.7542778,8.43085944 19.4811392,9.29119324 18.7928258,9.63070513 L18.6671,9.68507 L14.4693,11.2577 C13.8635455,11.4846909 13.3982002,10.7368349 13.812196,10.2936947 L13.8774,10.2326 L17.3383,7.38352 C17.981,6.85444 18.945,7.02908 19.3612,7.75 Z M17.25,2.90683 C17.9284941,3.29856647 18.1230685,4.17548052 17.7025812,4.81309788 L17.6165,4.92967 L14.7674,8.39056 C14.3561818,8.88999727 13.5793163,8.47494269 13.7163662,7.88422365 L13.7423,7.79872 L15.3149,3.60087 C15.607,2.82134 16.5291,2.49061 17.25,2.90683 Z M9.23258,15.6096 C9.64372182,15.1101818 10.4205838,15.5252008 10.2836208,16.1159862 L10.2577,16.2015 L8.68501,20.3993 C8.39297,21.1788 7.47086,21.5096 6.74994,21.0934 C6.07142706,20.7015882 5.87682498,19.8247052 6.29737585,19.1870751 L6.38347,19.0705 L9.23258,15.6096 Z M10.1877046,13.7063053 L10.1225,13.7674 L6.66161,16.6165 C6.01892,17.1456 5.05499,16.9709 4.63877,16.25 C4.24566389,15.56915 4.51882765,14.7088346 5.20709344,14.3692741 L5.33281,14.3149 L9.53066,12.7423 C10.1364527,12.5153091 10.6017086,13.2631651 10.1877046,13.7063053 Z M2.93965118,10.6560157 L3.06859,10.6713 L7.49036,11.4083 C8.12170222,11.5135111 8.15677679,12.376366 7.5955837,12.5658441 L7.49036,12.592 L3.06859,13.3289 C2.24748,13.4658 1.5,12.8326 1.5,12.0001 C1.5,11.2115105 2.17086848,10.6017044 2.93965118,10.6560157 Z M6.54508788,7.29743595 L6.66166,7.38353 L10.1225,10.2326 C10.6220136,10.6438182 10.2069079,11.4206837 9.6162101,11.2836338 L9.53071,11.2577 L5.33286,9.68507 C4.55333,9.39303 4.2226,8.47092 4.63882,7.75 C5.03055647,7.07149647 5.90747052,6.87688609 6.54508788,7.29743595 Z M8.63070513,3.47516344 L8.68507,3.60088 L10.2577,7.79872 C10.4846909,8.40451273 9.73678936,8.86977771 9.29371456,8.4557658 L9.23263,8.39056 L6.38352,4.92967 C5.85445,4.28699 6.02908,3.32305 6.75,2.90683 C7.43085944,2.51373333 8.29119324,2.78689762 8.63070513,3.47516344 Z M12,3.5 C11.1676,3.5 10.5344,4.24748 10.6712,5.06859 L11.4082,9.49036 C11.5196,10.1588 12.4805,10.1588 12.5919,9.49036 L13.3288,5.06859 C13.4657,4.24748 12.8325,3.5 12,3.5 Z M12.5919,14.5096 C12.4805,13.8412 11.5196,13.8412 11.4082,14.5096 L10.6712,18.9314 C10.5344,19.7525 11.1676,20.5 12,20.5 C12.8325,20.5 13.4657,19.7525 13.3288,18.9314 L12.5919,14.5096 Z" id="形状" fill="#09244B"></path>
            </g>
        </g>
    </g>
</svg>

<svg xmlns="http://www.w3.org/2000/svg" width="24" height="24"><g fill="none" fill-rule="nonzero"><path d="M24 0v24H0V0h24ZM12.594 23.258l-.012.002-.071.035-.02.004-.014-.004-.071-.036c-.01-.003-.019 0-.024.006l-.004.01-.017.428.005.02.01.013.104.074.015.004.012-.004.104-.074.012-.016.004-.017-.017-.427c-.002-.01-.009-.017-.016-.018Zm.264-.113-.014.002-.184.093-.01.01-.003.011.018.43.005.012.008.008.201.092c.012.004.023 0 .029-.008l.004-.014-.034-.614c-.003-.012-.01-.02-.02-.022Zm-.715.002a.023.023 0 0 0-.027.006l-.006.014-.034.614c0 .012.007.02.017.024l.015-.002.201-.093.01-.008.003-.011.018-.43-.003-.012-.01-.01-.184-.092Z"/><path fill="#09244B" d="M13.742 16.202c-.227-.606.521-1.072.964-.658l.061.066 2.85 3.46a1.347 1.347 0 1 1-2.248 1.455l-.054-.126-1.573-4.198Zm.642-3.486.085.026 4.198 1.573a1.347 1.347 0 1 1-1.212 2.388l-.117-.087-3.46-2.849c-.5-.41-.085-1.188.506-1.05ZM22.5 12c0 .789-.67 1.399-1.44 1.344l-.129-.015-4.421-.737c-.632-.105-.667-.968-.106-1.158l.106-.026 4.421-.737a1.347 1.347 0 0 1 1.569 1.33ZM19.36 7.75c.393.68.12 1.541-.568 1.88l-.126.055-4.198 1.573c-.605.227-1.07-.521-.657-.964l.065-.061 3.461-2.85a1.347 1.347 0 0 1 2.023.367ZM17.25 2.907c.678.392.873 1.268.453 1.906l-.087.117-2.849 3.46c-.41.5-1.188.085-1.05-.506l.025-.085L15.315 3.6a1.347 1.347 0 0 1 1.935-.694ZM9.233 15.61c.41-.5 1.188-.085 1.05.506l-.025.085L8.685 20.4a1.347 1.347 0 1 1-2.388-1.212l.086-.117 2.85-3.46Zm.955-1.904-.066.061-3.46 2.85a1.347 1.347 0 1 1-1.455-2.248l.126-.054 4.198-1.573c.605-.227 1.07.521.657.964Zm-7.248-3.05.129.015 4.421.737c.632.106.667.968.106 1.158l-.106.026-4.421.737a1.347 1.347 0 1 1-.13-2.673Zm3.605-3.359.117.087 3.46 2.849c.5.41.085 1.188-.506 1.05l-.085-.025-4.198-1.573a1.347 1.347 0 1 1 1.212-2.388Zm2.086-3.822.054.126 1.573 4.198c.227.606-.521 1.07-.964.657l-.061-.065-2.85-3.461a1.347 1.347 0 1 1 2.248-1.455ZM12 3.5c-.832 0-1.466.747-1.329 1.569l.737 4.421c.112.669 1.072.669 1.184 0l.737-4.421A1.347 1.347 0 0 0 12 3.5Zm.592 11.01c-.112-.669-1.072-.669-1.184 0l-.737 4.421a1.347 1.347 0 1 0 2.658 0l-.737-4.421Z"/></g></svg>
